web/packages/design/src/ResourceIcon/assets/mongo-dark.svg

<svg width="72" height="72" viewBox="0 0 72 72" fill="none" xmlns="http://www.w3.org/2000/svg">
<path d="M42.3943 8.02489C39.3725 4.4396 36.7703 0.798289 36.2387 0.0420152C36.1828 -0.0140051 36.0988 -0.0140051 36.0428 0.0420152C35.5112 0.798289 32.9091 4.4396 29.8873 8.02489C3.94998 41.1047 33.9724 63.4289 33.9724 63.4289L34.2242 63.597C34.448 67.0421 35.0076 72 35.0076 72H36.1268H37.246C37.246 72 37.8056 67.0701 38.0294 63.597L38.2812 63.4009C38.3092 63.4289 68.3317 41.1047 42.3943 8.02489ZM36.1268 62.9246C36.1268 62.9246 34.7838 61.7763 34.42 61.1882V61.1319L36.0428 25.1111C36.0428 24.999 36.2107 24.999 36.2107 25.1111L37.8335 61.1319V61.1882C37.4698 61.7763 36.1268 62.9246 36.1268 62.9246Z" fill="#00ED64"/>
</svg>

<svg xmlns="http://www.w3.org/2000/svg" width="72" height="72" fill="none" viewBox="0 0 72 72"><path fill="#00ed64" d="M42.394 8.025A128 128 0 0 1 36.24.042a.135.135 0 0 0-.196 0 128 128 0 0 1-6.156 7.983c-25.937 33.08 4.085 55.404 4.085 55.404l.252.168c.224 3.445.784 8.403.784 8.403h2.238s.56-4.93.783-8.403l.252-.196c.028.028 30.05-22.296 4.113-55.376m-6.267 54.9s-1.343-1.149-1.707-1.737v-.056l1.623-36.02c0-.113.168-.113.168 0l1.623 36.02v.056c-.364.588-1.707 1.737-1.707 1.737"/></svg>
